packages/foundations/assets/icons/functional/images/technology/light_bulb_14.svg

<svg width="14" height="14" viewBox="0 0 14 14" fill="none" xmlns="http://www.w3.org/2000/svg">
<g clip-path="url(#clip0_187_599)">
<path fill-rule="evenodd" clip-rule="evenodd" d="M8.39966 10.4993H5.59966C5.21326 10.4993 4.89966 10.8122 4.89966 11.1993C4.89966 11.5864 5.21326 11.8993 5.59966 11.8993H5.95246C5.95246 11.8993 5.95246 11.9 5.95246 11.9007C5.95246 12.2878 6.26606 12.6007 6.65246 12.6007H7.34686C7.73326 12.6007 8.04686 12.2878 8.04686 11.9007C8.04686 11.9007 8.04686 11.9 8.04686 11.8993H8.39966C8.78606 11.8993 9.09966 11.5864 9.09966 11.1993C9.09966 10.8122 8.78606 10.4993 8.39966 10.4993ZM7.00036 1.39929C9.12346 1.39929 10.8504 3.12689 10.8504 5.24929C10.8504 6.63669 10.2197 7.53409 9.75906 8.18929C9.50146 8.55609 9.27886 8.87249 9.26976 9.12449C9.25576 9.50109 8.94636 9.79929 8.56976 9.79929H5.43026C5.05296 9.79929 4.74426 9.50109 4.73026 9.12449C4.72116 8.87249 4.49856 8.55539 4.24096 8.18929C3.78036 7.53479 3.14966 6.63669 3.14966 5.24929C3.14966 3.12689 4.87656 1.39929 7.00036 1.39929ZM7.00036 2.79929C5.64936 2.79929 4.55036 3.89829 4.55036 5.24929C4.55036 6.19429 4.97596 6.79909 5.38686 7.38429C5.61156 7.70489 5.84186 8.03179 5.98536 8.39929H8.01466C8.15816 8.03179 8.38846 7.70489 8.61386 7.38429C9.02476 6.79909 9.45036 6.19429 9.45036 5.24929C9.45036 3.89829 8.35136 2.79929 7.00036 2.79929ZM6.31786 3.63719C6.67486 3.48739 7.08506 3.65259 7.23556 4.00819C7.38606 4.36449 7.22016 4.77539 6.86386 4.92659C6.76586 4.96789 6.69026 5.05329 6.66156 5.15549C6.57546 5.46419 6.29476 5.66649 5.98816 5.66649C5.92586 5.66649 5.86216 5.65809 5.79916 5.64059C5.42746 5.53699 5.20976 5.15059 5.31406 4.77819C5.45686 4.26999 5.83136 3.84369 6.31786 3.63719Z" fill="#1A1C1F"/>
</g>
<defs>
<clipPath id="clip0_187_599">
<rect width="14" height="14" fill="white"/>
</clipPath>
</defs>
</svg>

<svg xmlns="http://www.w3.org/2000/svg" width="14" height="14" fill="none"><g clip-path="url(#a)"><path fill="#1A1C1F" fill-rule="evenodd" d="M8.4 10.5H5.6a.7.7 0 1 0 0 1.4h.352a.7.7 0 0 0 .7.7h.695a.7.7 0 0 0 .7-.7H8.4a.7.7 0 1 0 0-1.4M7 1.4a3.855 3.855 0 0 1 3.85 3.85c0 1.387-.63 2.284-1.09 2.94-.259.366-.481.682-.49.934a.7.7 0 0 1-.7.675H5.43a.7.7 0 0 1-.7-.675c-.009-.252-.231-.569-.489-.935-.46-.654-1.091-1.552-1.091-2.94A3.855 3.855 0 0 1 7 1.4m0 1.4a2.453 2.453 0 0 0-2.45 2.45c0 .944.426 1.55.837 2.134.225.32.455.648.598 1.015h2.03c.143-.367.373-.694.599-1.015.41-.585.836-1.19.836-2.135A2.453 2.453 0 0 0 7 2.8m-.682.837a.7.7 0 0 1 .546 1.29.35.35 0 0 0-.202.228.7.7 0 1 1-1.348-.377 1.77 1.77 0 0 1 1.004-1.14" clip-rule="evenodd"/></g><defs><clipPath id="a"><path fill="#fff" d="M0 0h14v14H0z"/></clipPath></defs></svg>
